src/main/resources/icons/AllIcons/nodes/dataSchema.svg

<!-- Copyright 2000-2021 JetBrains s.r.o. Use of this source code is governed by the Apache 2.0 license that can be found in the LICENSE file. -->
<svg xmlns="http://www.w3.org/2000/svg" width="16" height="16" viewBox="0 0 16 16">
  <g fill="none" fill-rule="evenodd">
    <path fill="#9AA7B0" d="M5.99094851,13 C6.22846467,13.3695 6.51330688,13.7056872 6.83691336,14 L1,14 L1,2 L15,2 L15,8.89535769 C14.7989906,8.20731786 14.4540617,7.58068376 14,7.05024199 L14,5 L11,5 L11,5.3636558 C10.739514,5.32176696 10.472299,5.3 10.2,5.3 C10.1330175,5.3 10.0663427,5.30131713 10,5.3039269 L10,5 L6,5 L6,7 L6.44358659,7 C5.66945215,7.880507 5.2,9.03543029 5.2,10.3 C5.2,10.5375672 5.21656833,10.7712647 5.24861253,11 L2.0004,11 L2.0004,10 L5,10 L5,8 L2,8 L2,13 L5.99094851,13 Z M5,7 L5,5 L2,5 L2,7 L5,7 Z"/>
    <g fill="#9AA7B0" transform="translate(6.4 6.5)">
      <rect width="1.467" height="4.162" x="6.771" y="5.357" transform="rotate(-45 7.505 7.438)"/>
      <path d="M3.83333333,7.66666667 C1.71624179,7.66666667 -4e-16,5.95042487 -4e-16,3.83333333 C-4e-16,1.71624179 1.71624179,0 3.83333333,0 C5.95042487,0 7.66666667,1.71624179 7.66666667,3.83333333 C7.66666667,5.95042487 5.95042487,7.66666667 3.83333333,7.66666667 Z M3.83333333,6.33333333 C5.21404521,6.33333333 6.33333333,5.21404521 6.33333333,3.83333333 C6.33333333,2.45262146 5.21404521,1.33333333 3.83333333,1.33333333 C2.45262146,1.33333333 1.33333333,2.45262146 1.33333333,3.83333333 C1.33333333,5.21404521 2.45262146,6.33333333 3.83333333,6.33333333 Z"/>
    </g>
  </g>
</svg>

<svg xmlns="http://www.w3.org/2000/svg" width="16" height="16" viewBox="0 0 16 16"><rect id="frame" width="16" height="16" fill="none"/><g fill="#9AA7B0" fill-rule="evenodd"><path d="M5.99 13c.238.37.523.706.847 1H1V2h14v6.895a4.99 4.99 0 0 0-1-1.845V5h-3v.364a5.036 5.036 0 0 0-1-.06V5H6v2h.444a4.981 4.981 0 0 0-1.195 4H2v-1h3V8H2v5h3.99zM5 7V5H2v2h3z"/><path d="M11.914 12.986l1.038-1.038 2.943 2.943-1.038 1.038z"/><path d="M10.233 14.167a3.833 3.833 0 1 1 0-7.667 3.833 3.833 0 0 1 0 7.667zm0-1.334a2.5 2.5 0 1 0 0-5 2.5 2.5 0 0 0 0 5z"/></g></svg>
